; generated by PrusaSlicer 2.9.0 on 2025-02-06 at 11:52:55 UTC


;
;
; 

; external perimeters extrusion width = 0.45mm
; perimeters extrusion width = 0.45mm
; infill extrusion width = 0.45mm
; solid infill extrusion width = 0.45mm
; top infill extrusion width = 0.40mm
; first layer extrusion width = 0.42mm

M73 P0 R51
M73 Q0 S51
M201 X1000 Y1000 Z200 E8000 ; sets maximum accelerations, mm/sec^2
M203 X200 Y200 Z12 E120 ; sets maximum feedrates, mm / sec
M204 S1250 T1250 ; sets acceleration (S) and retract acceleration (R), mm/sec^2
M205 X8.00 Y8.00 Z0.40 E4.50 ; sets the jerk limits, mm/sec
M205 S0 T0 ; sets the minimum extruding and travel feed rate, mm/sec

; printing object dragoncito.stl id:0 copy 0
; stop printing object dragoncito.stl id:0 copy 0

;TYPE:Custom
M862.3 P "MK3SMMU2S" ; printer model check
M862.1 P0.4 ; nozzle diameter check
M115 U3.14.1 ; tell printer latest fw version
G90 ; use absolute coordinates
M83 ; extruder relative mode
M104 S215 ; set extruder temp
M140 S60 ; set bed temp
M190 S60 ; wait for bed temp
M109 S215 ; wait for extruder temp
G28 W ; home all without mesh bed level
G80 X107.177 Y68.9586 W35.6459 H72.2778 ; mesh bed levelling

; Send the filament type to the MMU unit.
; E stands for extruder number, F stands for filament type (0: default; 1:flex; 2: PVA)
M403 E0 F0
M403 E1 F0
M403 E2 F0
M403 E3 F0
M403 E4 F0


;go outside print area
G1 Y-3 F1000
G1 Z0.4 F1000
; select extruder
T0
; initial load
G1 X55 E29 F1073
G1 X5 E29 F1800
G1 X55 E8 F2000
G1 Z0.3 F1000
G92 E0
G1 X240 E25 F2200
G1 Y-2 F1000
M73 P0 R50
G1 X55 E25 F1400
G1 Z0.2 F1000
G1 X5 E4 F1000
G92 E0


M221 S95
G92 E0

; Don't change E values below. Excessive value can damage the printer.
M907 E430 ; set extruder motor current
G21 ; set units to millimeters
G90 ; use absolute coordinates
M83 ; use relative distances for extrusion

M900 K0.05 ; Filament gcode LA 1.5
M900 K30 ; Filament gcode LA 1.0




M107
;LAYER_CHANGE
;Z:0.2
;HEIGHT:0.2
G1 E-.8 F2100
G1 Z.6 F720
G1 X117.493 Y75.071 F10800
G1 Z.2 F720
G1 E.8 F2100
M204 S800
;TYPE:Skirt/Brim
;WIDTH:0.42
G1 F1200
G1 X118.497 Y73.733 E.05245
G1 X120.529 Y71.244 E.10075
G1 X121.396 Y70.371 E.03858
G1 X122.177 Y69.829 E.02981
G1 X123.071 Y69.436 E.03062
G1 X124.02 Y69.215 E.03055
G1 X125.094 Y69.148 E.03374
G1 X126.129 Y69.238 E.03257
G1 X127.089 Y69.491 E.03113
G1 X127.879 Y69.861 E.02735
G1 X128.651 Y70.411 E.02972
G1 X129.55 Y71.335 E.04042
G1 X131.504 Y73.733 E.09699
G1 X132.507 Y75.071 E.05243
G1 X133.222 Y76.207 E.04209
G1 X133.666 Y77.139 E.03237
G1 X142.389 Y99.323 E.7474
G1 X142.581 Y100.065 E.02403
G1 X142.634 Y100.839 E.02433
G1 X142.552 Y102.007 E.03671
G1 X139.888 Y121.961 E.63119
G1 X138.775 Y126.639 E.15077
G1 X137.866 Y129.699 E.10009
G1 X137.349 Y131.112 E.04718
G1 X137.047 Y131.653 E.01943
G1 X136.673 Y132.075 E.01768
G1 X127.666 Y140.094 E.37812
G1 X127.051 Y140.506 E.02321
G1 X126.367 Y140.814 E.02352
G1 X125.621 Y141 E.02411
G1 X124.936 Y141.048 E.02153
G1 X124.264 Y140.981 E.02117
G1 X123.528 Y140.775 E.02396
G1 X122.949 Y140.506 E.02002
G1 X122.334 Y140.094 E.02321
G1 X113.327 Y132.075 E.37812
G1 X112.953 Y131.653 E.01768
M73 Q0 S50
G1 X112.63 Y131.064 E.02106
G1 X112.134 Y129.699 E.04554
G1 X111.227 Y126.646 E.09986
G1 X110.112 Y121.961 E.151
G1 X107.448 Y102.007 E.63119
G1 X107.366 Y100.839 E.03671
M73 P1 R50
M73 Q1 S50
G1 X107.419 Y100.065 E.02433
G1 X107.611 Y99.323 E.02403
G1 X116.334 Y77.139 E.7474
G1 X116.778 Y76.207 E.03237
G1 X117.461 Y75.122 E.0402
M204 S1000
;WIPE_START
G1 F8640
G1 X117.493 Y75.071 E-.0139
G1 X118.497 Y73.733 E-.38625
G1 X119.592 Y72.391 E-.39985
;WIPE_END
G1 Z.6 F720
; printing object dragoncito.stl id:0 copy 0
G1 X117.54 Y101.802 F10800
G1 Z.2 F720
G1 E.8 F2100
M204 S800
;TYPE:Perimeter
;WIDTH:0.419999
G1 F1200
G1 X117.592 Y101.883 E.00302
G1 X117.792 Y102.05 E.00817
G1 X118.211 Y102.154 E.01354
G1 X118.456 Y102.102 E.00785
G1 X118.868 Y101.848 E.01518
G1 X119.113 Y101.468 E.01418
G1 X119.534 Y100.224 E.04118
G1 X119.772 Y99.333 E.02892
G1 X119.932 Y98.59 E.02383
G1 X120.033 Y97.974 E.01957
G1 X120.128 Y97.156 E.02582
G1 X120.21 Y95.927 E.03862
G1 X120.175 Y95.059 E.02724
G1 X119.767 Y91.777 E.1037
G1 X119.605 Y90.234 E.04865
G1 X119.548 Y89.419 E.02562
G1 X119.599 Y88.046 E.04308
G1 X119.552 Y84.602 E.10799
G1 X119.618 Y79.827 E.14973
G1 X119.659 Y79.218 E.01914
G1 X119.811 Y78.523 E.02231
G1 X120.039 Y77.915 E.02036
G1 X120.348 Y77.288 E.02192
G1 X120.787 Y76.564 E.02655
G1 X121.309 Y75.808 E.02881
G1 X121.872 Y75.064 E.02925
G1 X122.406 Y74.423 E.02616
G1 X122.911 Y73.864 E.02362
G1 X123.282 Y73.487 E.01658
G1 X123.79 Y73.089 E.02023
G1 X124.169 Y72.914 E.01309
G1 X124.711 Y72.827 E.01721
G1 X125.26 Y72.84 E.01722
G1 X125.902 Y72.935 E.02035
G1 X126.415 Y73.231 E.01857
G1 X127.049 Y73.819 E.02711
G1 X127.484 Y74.296 E.02024
G1 X128.122 Y75.056 E.03111
G1 X128.505 Y75.555 E.01972
G1 X129.049 Y76.316 E.02933
G1 X129.368 Y76.808 E.01839
G1 X129.769 Y77.505 E.02521
G1 X130.012 Y78.05 E.01871
G1 X130.198 Y78.553 E.01681
G1 X130.341 Y79.218 E.02133
G1 X130.382 Y79.827 E.01914
G1 X130.448 Y84.602 E.14973
G1 X130.401 Y88.046 E.10799
G1 X130.452 Y89.419 E.04308
G1 X130.395 Y90.233 E.02558
G1 X130.233 Y91.777 E.04868
G1 X129.825 Y95.059 E.1037
G1 X129.79 Y95.927 E.02724
G1 X129.875 Y97.183 E.03947
G1 X129.971 Y98.002 E.02585
G1 X130.073 Y98.615 E.01948
G1 X130.234 Y99.36 E.0239
G1 X130.524 Y100.416 E.03434
G1 X130.898 Y101.496 E.03584
G1 X131.215 Y101.916 E.0165
G1 X131.441 Y102.067 E.00852
G1 X131.789 Y102.154 E.01125
G1 X132.208 Y102.05 E.01354
G1 X132.408 Y101.883 E.00817
G1 X132.69 Y101.448 E.01625
G1 X132.862 Y100.863 E.01912
G1 X132.952 Y100.245 E.01958
G1 X132.973 Y98.729 E.04754
G1 X133.146 Y98.257 E.01576
G1 X133.862 Y98.186 E.02256
G1 X134.508 Y98.17 E.02026
G1 X134.564 Y98.308 E.00467
G1 X134.728 Y98.533 E.00873
G1 X135.077 Y98.771 E.01324
G1 X135.428 Y98.844 E.01124
G1 X135.905 Y98.727 E.0154
G1 X136.19 Y98.535 E.01077
G1 X136.613 Y98.208 E.01676
G1 X137.001 Y98.195 E.01217
G1 X137.482 Y98.388 E.01625
G1 X137.909 Y98.673 E.0161
G1 X138.109 Y98.862 E.00863
G1 X138.138 Y99.47 E.01909
G1 X138.273 Y99.908 E.01437
G1 X138.555 Y100.262 E.01419
G1 X139.06 Y100.598 E.01902
G1 X139.539 Y100.769 E.01595
G1 X139.564 Y101.095 E.01025
G1 X139.531 Y101.528 E.01362
G1 X139.378 Y102.192 E.02136
G1 X139.242 Y102.594 E.01331
G1 X138.964 Y102.992 E.01522
G1 X138.626 Y103.372 E.01595
G1 X138.104 Y104.052 E.02688
G1 X137.758 Y104.441 E.01632
G1 X137.342 Y104.783 E.01689
G1 X136.965 Y104.987 E.01344
G1 X136.469 Y105.172 E.0166
G1 X134.769 Y105.684 E.05567
G1 X134.06 Y105.994 E.02426
G1 X133.806 Y106.163 E.00957
G1 X133.484 Y106.479 E.01415
G1 X133.264 Y106.836 E.01315
G1 X133.112 Y107.348 E.01675
G1 X133.079 Y107.874 E.01652
G1 X133.12 Y110.134 E.07087
G1 X133.129 Y112.593 E.0771
G1 X133.174 Y113.174 E.01827
G1 X133.251 Y113.741 E.01794
G1 X133.44 Y114.654 E.02923
G1 X133.578 Y115.017 E.01218
G1 X133.903 Y115.747 E.02505
G1 X134.4 Y116.45 E.02699
G1 X134.806 Y116.881 E.01857
G1 X135.612 Y117.587 E.0336
G1 X136.051 Y118.05 E.02001
G1 X136.392 Y118.571 E.01952
G1 X136.604 Y119.051 E.01645
G1 X136.778 Y119.673 E.02025
G1 X136.839 Y120.415 E.02334
G1 X136.75 Y121.596 E.03713
G1 X136.576 Y122.571 E.03105
G1 X136.201 Y124.239 E.0536
G1 X135.943 Y125.229 E.03208
G1 X135.685 Y126.032 E.02645
G1 X135.451 Y126.613 E.01964
G1 X134.738 Y128.21 E.05484
G1 X134.634 Y128.642 E.01393
G1 X134.644 Y129.033 E.01226
G1 X134.459 Y129.065 E.00589
G1 X134.116 Y129.04 E.01078
G1 X133.745 Y128.92 E.01223
G1 X133.297 Y128.588 E.01748
G1 X132.632 Y127.938 E.02916
G1 X132.285 Y127.556 E.01618
G1 X131.977 Y127.122 E.01669
G1 X131.874 Y126.84 E.00941
G1 X131.798 Y126.495 E.01108
G1 X131.83 Y126.061 E.01364
G1 X131.96 Y125.491 E.01833
G1 X132.454 Y124.155 E.04466
G1 X132.635 Y123.475 E.02206
G1 X132.72 Y122.974 E.01593
G1 X132.715 Y122.373 E.01884
G1 X132.587 Y121.76 E.01963
G1 X132.454 Y121.409 E.01177
G1 X132.244 Y121.107 E.01153
G1 X132.028 Y120.913 E.0091
G1 X131.596 Y120.768 E.01429
G1 X131.299 Y120.786 E.00933
G1 X130.829 Y120.965 E.01577
G1 X130.119 Y121.448 E.02692
G1 X129.474 Y122.124 E.0293
G1 X128.912 Y122.937 E.03099
G1 X128.49 Y123.716 E.02778
G1 X128.213 Y124.335 E.02126
G1 X128.019 Y124.831 E.0167
G1 X127.68 Y125.796 E.03207
G1 X127.325 Y127.026 E.04014
G1 X127.111 Y127.952 E.0298
G1 X126.983 Y128.693 E.02358
G1 X126.898 Y129.383 E.0218
G1 X126.849 Y130.037 E.02056
G1 X126.788 Y132.297 E.07089
G1 X126.687 Y133.619 E.04157
G1 X126.595 Y134.369 E.02369
G1 X126.451 Y135.296 E.02941
G1 X126.303 Y136.08 E.02502
G1 X126.171 Y136.663 E.01874
G1 X125.986 Y137.197 E.01772
G1 X125.822 Y137.406 E.00833
G1 X125.575 Y137.551 E.00898
G1 X125 Y137.668 E.0184
G1 X124.427 Y137.552 E.01833
G1 X124.14 Y137.366 E.01072
G1 X123.923 Y136.975 E.01402
G1 X123.696 Y136.074 E.02913
G1 X123.549 Y135.295 E.02486
G1 X123.405 Y134.369 E.02938
G1 X123.313 Y133.619 E.02369
G1 X123.212 Y132.297 E.04157
G1 X123.15 Y130.009 E.07176
G1 X123.099 Y129.357 E.02051
G1 X123.013 Y128.666 E.02183
G1 X122.881 Y127.913 E.02397
G1 X122.699 Y127.112 E.02575
G1 X122.32 Y125.797 E.04291
G1 X121.974 Y124.811 E.03276
G1 X121.777 Y124.309 E.01691
G1 X121.491 Y123.678 E.02172
G1 X121.055 Y122.884 E.0284
G1 X120.468 Y122.053 E.0319
G1 X119.786 Y121.369 E.03029
G1 X119.169 Y120.964 E.02314
G1 X118.701 Y120.786 E.0157
G1 X118.447 Y120.761 E.008
G1 X118.064 Y120.874 E.01252
G1 X117.828 Y121.021 E.00872
G1 X117.546 Y121.414 E.01517
G1 X117.356 Y121.937 E.01745
G1 X117.274 Y122.517 E.01837
G1 X117.31 Y123.221 E.0221
G1 X117.429 Y123.796 E.01841
G1 X117.631 Y124.415 E.02042
G1 X118.036 Y125.48 E.03573
G1 X118.194 Y126.095 E.01991
G1 X118.188 Y126.672 E.01809
G1 X118.023 Y127.122 E.01503
G1 X117.806 Y127.455 E.01246
G1 X117.404 Y127.903 E.01887
G1 X116.748 Y128.545 E.02878
G1 X116.326 Y128.868 E.01666
G1 X116.008 Y129.012 E.01095
G1 X115.596 Y129.066 E.01303
G1 X115.349 Y129.032 E.00782
G1 X115.36 Y128.627 E.0127
G1 X115.262 Y128.21 E.01343
G1 X114.549 Y126.613 E.05484
G1 X114.315 Y126.032 E.01964
G1 X114.057 Y125.229 E.02645
G1 X113.799 Y124.239 E.03208
G1 X113.424 Y122.571 E.0536
G1 X113.215 Y121.266 E.04144
G1 X113.174 Y120.598 E.02098
G1 X113.19 Y119.926 E.02108
G1 X113.297 Y119.365 E.01791
G1 X113.468 Y118.866 E.01654
G1 X113.748 Y118.341 E.01866
G1 X114.121 Y117.869 E.01886
G1 X114.668 Y117.342 E.02382
G1 X115.234 Y116.842 E.02368
G1 X115.707 Y116.325 E.02197
G1 X116.139 Y115.673 E.02452
G1 X116.391 Y115.136 E.0186
G1 X116.56 Y114.654 E.01601
G1 X116.756 Y113.7 E.03054
G1 X116.829 Y113.142 E.01764
G1 X116.872 Y112.552 E.01855
G1 X116.88 Y110.134 E.07581
G1 X116.921 Y107.874 E.07087
G1 X116.888 Y107.348 E.01652
G1 X116.779 Y106.941 E.01321
G1 X116.586 Y106.576 E.01295
G1 X116.341 Y106.285 E.01193
G1 X115.94 Y105.994 E.01553
G1 X115.166 Y105.661 E.02642
G1 X113.623 Y105.199 E.0505
G1 X112.873 Y104.899 E.02533
G1 X112.47 Y104.628 E.01523
G1 X112.071 Y104.249 E.01725
G1 X110.865 Y102.765 E.05996
G1 X110.692 Y102.386 E.01306
G1 X110.525 Y101.843 E.01781
G1 X110.436 Y101.095 E.02362
G1 X110.461 Y100.769 E.01025
G1 X111.08 Y100.525 E.02086
G1 X111.499 Y100.219 E.01627
G1 X111.741 Y99.884 E.01296
G1 X111.864 Y99.448 E.0142
G1 X111.89 Y98.876 E.01795
G1 X112.236 Y98.57 E.01448
G1 X112.687 Y98.312 E.01629
G1 X113.146 Y98.175 E.01502
G1 X113.425 Y98.212 E.00882
G1 X113.669 Y98.433 E.01032
G1 X114.127 Y98.739 E.01727
G1 X114.493 Y98.837 E.01188
G1 X114.721 Y98.825 E.00716
G1 X115.055 Y98.707 E.01111
G1 X115.323 Y98.485 E.01091
G1 X115.498 Y98.17 E.0113
G1 X116.11 Y98.178 E.01919
G1 X116.844 Y98.235 E.02308
G1 X117.002 Y98.634 E.01346
G1 X117.028 Y99.724 E.03419
G1 X117.064 Y100.37 E.02029
G1 X117.156 Y100.944 E.01823
G1 X117.312 Y101.453 E.01669
G1 X117.507 Y101.752 E.01119
M204 S1000
G1 X117.507 Y101.752 F10800
G1 X117.821 Y101.548
M204 S800
;TYPE:External perimeter
G1 F1200
G1 X117.918 Y101.684 E.00524
G1 X118.216 Y101.777 E.00979
G1 X118.547 Y101.625 E.01142
G1 X118.756 Y101.347 E.01091
G1 X119.17 Y100.127 E.04039
G1 X119.404 Y99.254 E.02834
G1 X119.56 Y98.528 E.02328
G1 X119.659 Y97.931 E.01897
G1 X119.751 Y97.131 E.02525
G1 X119.834 Y95.902 E.03862
G1 X119.801 Y95.105 E.02501
G1 X119.393 Y91.82 E.10379
G1 X119.229 Y90.267 E.04896
G1 X119.17 Y89.425 E.02647
G1 X119.222 Y88.051 E.04311
G1 X119.175 Y84.602 E.10815
G1 X119.239 Y79.962 E.1455
G1 X119.268 Y79.409 E.01736
G1 X119.368 Y78.69 E.02276
G1 X119.525 Y78.161 E.0173
G1 X119.782 Y77.557 E.02058
G1 X120.019 Y77.103 E.01606
G1 X120.47 Y76.359 E.02728
G1 X121.003 Y75.587 E.02941
G1 X121.577 Y74.83 E.02979
G1 X122.121 Y74.176 E.02667
G1 X122.631 Y73.611 E.02386
G1 X123.031 Y73.205 E.01787
G1 X123.592 Y72.765 E.02235
G1 X124.058 Y72.55 E.01609
G1 X124.488 Y72.481 E.01365
G1 X125.106 Y72.444 E.01941
G1 X125.746 Y72.513 E.02018
G1 X126.054 Y72.587 E.00993
G1 X126.64 Y72.925 E.02121
G1 X127.318 Y73.554 E.029
G1 X127.768 Y74.048 E.02095
G1 X128.416 Y74.82 E.0316
G1 X128.808 Y75.331 E.02019
G1 X129.36 Y76.104 E.02978
G1 X129.69 Y76.611 E.01897
G1 X130.105 Y77.334 E.02614
G1 X130.357 Y77.897 E.01934
G1 X130.56 Y78.446 E.01835
G1 X130.716 Y79.173 E.02331
G1 X130.759 Y79.812 E.02008
G1 X130.825 Y84.602 E.1502
G1 X130.778 Y88.051 E.10815
G1 X130.83 Y89.425 E.04311
G1 X130.771 Y90.266 E.02643
G1 X130.607 Y91.82 E.049
G1 X130.199 Y95.105 E.10379
G1 X130.166 Y95.902 E.02501
G1 X130.249 Y97.14 E.0389
G1 X130.343 Y97.94 E.02526
G1 X130.442 Y98.536 E.01894
G1 X130.598 Y99.263 E.02331
G1 X130.885 Y100.305 E.03389
G1 X131.248 Y101.356 E.03486
G1 X131.505 Y101.674 E.01282
G1 X131.784 Y101.777 E.00932
G1 X132.082 Y101.684 E.00979
G1 X132.329 Y101.338 E.01333
G1 X132.489 Y100.807 E.01739
G1 X132.575 Y100.23 E.01829
G1 X132.596 Y99.698 E.01669
G1 X132.58 Y98.902 E.02496
G1 X132.655 Y98.458 E.01412
G1 X132.869 Y97.953 E.0172
G1 X132.926 Y97.9 E.00244
G1 X134.028 Y97.791 E.03472
G1 X134.584 Y97.793 E.01743
G1 X134.78 Y97.836 E.00629
G1 X134.913 Y98.167 E.01118
G1 X135.134 Y98.379 E.0096
G1 X135.424 Y98.466 E.00949
G1 X135.841 Y98.337 E.01369
G1 X136.356 Y97.9 E.02118
G1 X136.622 Y97.805 E.00886
G1 X137.08 Y97.82 E.01437
G1 X137.659 Y98.053 E.01957
G1 X138.189 Y98.406 E.01997
G1 X138.48 Y98.717 E.01335
G1 X138.511 Y99.391 E.02116
G1 X138.581 Y99.679 E.00929
G1 X138.775 Y99.956 E.0106
G1 X139.187 Y100.243 E.01574
G1 X139.783 Y100.467 E.01996
G1 X139.906 Y100.648 E.00686
G1 X139.94 Y101.124 E.01496
G1 X139.912 Y101.492 E.01157
G1 X139.811 Y101.994 E.01606
G1 X139.641 Y102.616 E.02022
G1 X139.368 Y103.105 E.01756
G1 X138.925 Y103.602 E.02087
G1 X138.395 Y104.293 E.0273
G1 X138.02 Y104.714 E.01768
G1 X137.553 Y105.097 E.01894
G1 X137.122 Y105.332 E.01539
G1 X136.588 Y105.529 E.01785
G1 X134.92 Y106.03 E.05461
G1 X134.211 Y106.34 E.02426
G1 X134.028 Y106.468 E.007
G1 X133.764 Y106.731 E.01168
G1 X133.624 Y106.966 E.00858
G1 X133.489 Y107.366 E.01324
G1 X133.456 Y107.867 E.01574
G1 X133.497 Y110.13 E.07097
G1 X133.505 Y112.564 E.07632
G1 X133.548 Y113.124 E.01761
G1 X133.62 Y113.664 E.01708
G1 X133.809 Y114.577 E.02923
G1 X134.216 Y115.537 E.03269
G1 X134.675 Y116.193 E.0251
G1 X135.055 Y116.598 E.01741
G1 X135.776 Y117.23 E.03006
G1 X136.194 Y117.653 E.01865
G1 X136.562 Y118.127 E.01882
G1 X136.822 Y118.573 E.01619
G1 X137.025 Y119.091 E.01744
G1 X137.151 Y119.613 E.01684
G1 X137.217 Y120.413 E.02517
G1 X137.125 Y121.643 E.03867
G1 X136.946 Y122.645 E.03191
G1 X136.568 Y124.328 E.05408
G1 X136.305 Y125.334 E.0326
G1 X136.04 Y126.161 E.02723
G1 X135.799 Y126.76 E.02024
G1 X135.082 Y128.364 E.05509
G1 X135.003 Y128.719 E.0114
G1 X135.022 Y129.034 E.00989
G1 X134.945 Y129.365 E.01066
G1 X134.521 Y129.436 E.01348
G1 X134.081 Y129.415 E.01381
G1 X133.564 Y129.255 E.01697
G1 X133.051 Y128.876 E.02
G1 X132.368 Y128.208 E.02995
G1 X132.004 Y127.807 E.01698
G1 X131.638 Y127.292 E.01981
G1 X131.44 Y126.754 E.01797
G1 X131.407 Y126.333 E.01324
G1 X131.503 Y125.701 E.02004
G1 X131.701 Y125.112 E.01948
G1 X132.019 Y124.273 E.02813
G1 X132.218 Y123.655 E.02036
G1 X132.343 Y122.969 E.02186
G1 X132.346 Y122.45 E.01627
G1 X132.218 Y121.837 E.01963
G1 X132.113 Y121.571 E.00897
