; generated by PrusaSlicer 2.9.0 on 2025-02-05 at 19:18:58 UTC

; 

; external perimeters extrusion width = 0.45mm
; perimeters extrusion width = 0.45mm
; infill extrusion width = 0.45mm
; solid infill extrusion width = 0.45mm
; top infill extrusion width = 0.40mm
; first layer extrusion width = 0.70mm

M73 P0 R18
M73 Q0 S18
M201 X1000 Y1000 Z200 E8000 ; sets maximum accelerations, mm/sec^2
M203 X200 Y200 Z12 E120 ; sets maximum feedrates, mm / sec
M204 S1250 T1250 ; sets acceleration (S) and retract acceleration (R), mm/sec^2
M205 X8.00 Y8.00 Z0.40 E4.50 ; sets the jerk limits, mm/sec
M205 S0 T0 ; sets the minimum extruding and travel feed rate, mm/sec
;TYPE:Custom
M862.3 P "MK3SMMU2S" ; printer model check
M862.1 P0.4 ; nozzle diameter check
M115 U3.14.1 ; tell printer latest fw version
G90 ; use absolute coordinates
M83 ; extruder relative mode
M104 S215 ; set extruder temp
M140 S60 ; set bed temp
M190 S60 ; wait for bed temp
M109 S215 ; wait for extruder temp
G28 W ; home all without mesh bed level
G80 X97.5423 Y73.3763 W54.9153 H63.2474 ; mesh bed levelling

; Send the filament type to the MMU unit.
; E stands for extruder number, F stands for filament type (0: default; 1:flex; 2: PVA)
M403 E0 F0
M403 E1 F0
M403 E2 F0
M403 E3 F0
M403 E4 F0


;go outside print area
G1 Y-3 F1000
G1 Z0.4 F1000
; select extruder
T0
; initial load
G1 X55 E29 F1073
G1 X5 E29 F1800
G1 X55 E8 F2000
G1 Z0.3 F1000
G92 E0
G1 X240 E25 F2200
G1 Y-2 F1000
M73 P1 R18
M73 Q1 S18
G1 X55 E25 F1400
G1 Z0.2 F1000
G1 X5 E4 F1000
G92 E0


M221 S95
G92 E0

; Don't change E values below. Excessive value can damage the printer.

G21 ; set units to millimeters
G90 ; use absolute coordinates
M83 ; use relative distances for extrusion

M900 K0.05 ; Filament gcode LA 1.5
M900 K30 ; Filament gcode LA 1.0




M107
;LAYER_CHANGE
;Z:0.35
;HEIGHT:0.35
G1 E-.8 F2100
M73 P2 R18
M73 Q2 S18
G1 Z.75 F7800
G1 X104.343 Y84.653
G1 Z.35
G1 E.8 F2100
;TYPE:Skirt/Brim
;WIDTH:0.7
G1 F1800
G1 X106.083 Y82.512 E.25086
G1 X107.345 Y81.187 E.16639
G1 X108.529 Y80.085 E.14708
G1 X110.655 Y78.396 E.2469
G1 X112.931 Y76.938 E.24578
G1 X115.336 Y75.729 E.24476
G1 X117.85 Y74.788 E.24409
G1 X120.447 Y74.129 E.24363
G1 X123.098 Y73.765 E.24332
G1 X125.663 Y73.699 E.23331
G1 X128.44 Y73.939 E.25345
G1 X131.067 Y74.476 E.24381
G1 X133.624 Y75.302 E.24434
G1 X136.084 Y76.403 E.24507
G1 X138.422 Y77.764 E.24599
G1 X140.618 Y79.366 E.24717
G1 X142.655 Y81.187 E.24845
G1 X144.518 Y83.207 E.24987
G1 X146.195 Y85.404 E.25132
G1 X147.678 Y87.758 E.25298
G1 X148.958 Y90.246 E.25442
G1 X150.087 Y93.012 E.27166
G1 X150.928 Y95.707 E.25671
G1 X151.685 Y99.242 E.32872
G1 X152.027 Y102.069 E.25893
G1 X152.145 Y105.083 E.27427
G1 X151.955 Y108.712 E.33044
G1 X151.552 Y111.527 E.25858
G1 X150.884 Y114.457 E.27326
G1 X150.028 Y117.152 E.25712
G1 X148.633 Y120.436 E.32444
G1 X147.301 Y122.885 E.25349
G1 X145.77 Y125.193 E.25184
G1 X144.048 Y127.34 E.25026
G1 X141.994 Y129.444 E.26737
G1 X139.903 Y131.194 E.24794
G1 X137.657 Y132.717 E.24675
G1 X135.276 Y133.993 E.24563
G1 X132.781 Y135.005 E.24482
G1 X130.198 Y135.736 E.2441
G1 X127.554 Y136.174 E.24369
G1 X124.881 Y136.311 E.24337
G1 X122.446 Y136.174 E.22176
G1 X119.802 Y135.736 E.24369
G1 X117.219 Y135.005 E.2441
G1 X114.724 Y133.993 E.24482
G1 X112.343 Y132.717 E.24563
G1 X110.097 Y131.194 E.24675
G1 X108.006 Y129.444 E.24794
G1 X105.952 Y127.34 E.26737
G1 X104.23 Y125.193 E.25026
G1 X102.699 Y122.885 E.25184
G1 X101.367 Y120.436 E.25349
G1 X99.972 Y117.152 E.32444
G1 X99.116 Y114.457 E.25712
G1 X98.448 Y111.527 E.27326
G1 X97.973 Y107.931 E.32982
G1 X97.855 Y104.917 E.27427
G1 X98.045 Y101.288 E.33044
G1 X98.448 Y98.473 E.25858
G1 X99.116 Y95.543 E.27326
G1 X99.972 Y92.848 E.25712
G1 X101.367 Y89.564 E.32444
G1 X102.699 Y87.115 E.25349
G1 X104.309 Y84.703 E.26369
;WIPE_START
G1 F6240
G1 X104.343 Y84.653 E-.01933
G1 X105.883 Y82.759 E-.78067
;WIPE_END
G1 Z.75 F7800
G1 X127.943 Y86.018
G1 Z.35
G1 E.8 F2100
;TYPE:Perimeter
;WIDTH:0.7
G1 F1800
G1 X127.878 Y86.349 E.03067
G1 X127.689 Y86.855 E.04912
G1 X127.389 Y87.347 E.0524
G1 X126.988 Y87.781 E.05373
G1 X126.493 Y88.141 E.05565
G1 X125.973 Y88.379 E.052
G1 X125.484 Y88.504 E.04589
G1 X124.982 Y88.544 E.04579
G1 X124.436 Y88.49 E.04989
G1 X123.951 Y88.351 E.04588
G1 X123.445 Y88.104 E.0512
G1 X122.995 Y87.768 E.05107
G1 X122.643 Y87.385 E.0473
G1 X122.451 Y87.11 E.0305
G1 X122.21 Y86.621 E.04957
G1 X122.055 Y86.038 E.05485
G1 X122.016 Y85.438 E.05467
G1 X122.104 Y84.832 E.05568
G1 X122.317 Y84.248 E.05652
G1 X122.599 Y83.78 E.04968
G1 X122.995 Y83.343 E.05362
G1 X123.446 Y83.007 E.05114
G1 X123.951 Y82.761 E.05108
;WIDTH:0.740935
G1 X124.016 Y82.718 E.00755
;WIDTH:0.78187
G1 X124.082 Y82.676 E.00805
;WIDTH:0.822805
G1 X124.148 Y82.634 E.00851
;WIDTH:0.86374
G1 X124.213 Y82.592 E.00888
;WIDTH:0.904675
G1 X124.279 Y82.55 E.00944
G1 X124.808 Y82.491 E.06425
;WIDTH:0.882725
G1 X125.418 Y82.507 E.07171
;WIDTH:0.898487
G1 X125.638 Y82.535 E.02657
G1 X125.721 Y82.584 E.01155
;WIDTH:0.848865
G1 X125.805 Y82.633 E.01095
;WIDTH:0.799243
G1 X125.889 Y82.683 E.0103
;WIDTH:0.749621
G1 X125.972 Y82.732 E.00946
;WIDTH:0.7
G1 X126.533 Y82.995 E.05634
G1 X127.005 Y83.343 E.05332
G1 X127.384 Y83.758 E.0511
G1 X127.702 Y84.289 E.05628
G1 X127.9 Y84.848 E.05392
G1 X127.982 Y85.409 E.05155
G1 X127.953 Y85.959 E.05008
G1 X127.953 Y85.959 F7800
G1 X127.319 Y85.92
G1 F1800
G1 X127.284 Y86.156 E.02169
G1 X127.131 Y86.574 E.04047
G1 X126.902 Y86.955 E.04042
G1 X126.582 Y87.306 E.04319
G1 X126.199 Y87.59 E.04336
G1 X125.787 Y87.782 E.04133
G1 X125.356 Y87.89 E.0404
G1 X124.897 Y87.914 E.04179
G1 X124.401 Y87.84 E.0456
G1 X123.942 Y87.664 E.0447
G1 X123.601 Y87.458 E.03623
G1 X123.269 Y87.162 E.04044
G1 X122.999 Y86.809 E.04041
G1 X122.799 Y86.412 E.04042
G1 X122.676 Y85.969 E.04181
G1 X122.64 Y85.468 E.04567
G1 X122.718 Y84.961 E.04664
G1 X122.865 Y84.547 E.03995
G1 X123.098 Y84.156 E.04139
G1 X123.394 Y83.825 E.04038
G1 X123.747 Y83.554 E.04047
G1 X124.144 Y83.355 E.04038
G1 X124.584 Y83.232 E.04154
G1 X125.078 Y83.196 E.04504
G1 X125.529 Y83.254 E.04135
G1 X125.964 Y83.401 E.04175
G1 X126.399 Y83.653 E.04571
G1 X126.731 Y83.949 E.04044
G1 X127.042 Y84.379 E.04825
G1 X127.223 Y84.759 E.03827
G1 X127.335 Y85.2 E.04137
G1 X127.358 Y85.659 E.04179
G1 X127.328 Y85.861 E.01857
G1 X126.705 Y85.825 F7800
;TYPE:External perimeter
G1 F1800
G1 X126.689 Y85.963 E.01263
G1 X126.583 Y86.273 E.02979
G1 X126.421 Y86.557 E.02973
G1 X126.19 Y86.82 E.03183
G1 X125.793 Y87.096 E.04397
G1 X125.311 Y87.266 E.04647
G1 X124.965 Y87.293 E.03156
G1 X124.463 Y87.203 E.04637
G1 X124.006 Y86.982 E.04616
G1 X123.75 Y86.763 E.03063
G1 X123.546 Y86.508 E.02969
G1 X123.394 Y86.219 E.02969
G1 X123.297 Y85.901 E.03023
G1 X123.262 Y85.526 E.03425
G1 X123.316 Y85.144 E.03508
G1 X123.413 Y84.846 E.0285
G1 X123.579 Y84.555 E.03046
G1 X123.792 Y84.306 E.0298
G1 X124.208 Y84.013 E.04627
G1 X124.654 Y83.853 E.04309
G1 X125.021 Y83.818 E.03352
G1 X125.354 Y83.854 E.03046
G1 X125.672 Y83.953 E.03028
G1 X126.001 Y84.135 E.03419
G1 X126.25 Y84.348 E.0298
G1 X126.491 Y84.672 E.03672
G1 X126.665 Y85.078 E.04016
G1 X126.738 Y85.527 E.04136
G1 X126.711 Y85.765 E.02178
;WIPE_START
G1 F6240
G1 X126.705 Y85.825 E-.01928
G1 X126.689 Y85.963 E-.04442
G1 X126.583 Y86.273 E-.10474
G1 X126.421 Y86.557 E-.10453
G1 X126.19 Y86.82 E-.11191
G1 X125.793 Y87.096 E-.15458
G1 X125.311 Y87.266 E-.1634
G1 X125.008 Y87.289 E-.09714
;WIPE_END
G1 Z.75 F7800
G1 X140.105 Y119.474
G1 Z.35
G1 E.8 F2100
;TYPE:Perimeter
G1 F1800
G1 X139.345 Y120.576 E.12172
G1 X138.502 Y121.653 E.12436
G1 X137.614 Y122.653 E.12161
G1 X136.679 Y123.582 E.11985
G1 X135.689 Y124.445 E.11942
G1 X134.69 Y125.206 E.11419
G1 X133.612 Y125.917 E.11742
G1 X133.096 Y126.22 E.05441
G1 X131.97 Y126.805 E.11538
G1 X131.436 Y127.047 E.05331
G1 X130.284 Y127.496 E.11243
G1 X129.217 Y127.827 E.10158
G1 X128.556 Y127.995 E.06202
G1 X127.46 Y128.205 E.10147
G1 X126.776 Y128.3 E.06279
G1 X126.203 Y128.354 E.05233
G1 X125 Y128.399 E.10946
G1 X123.797 Y128.354 E.10946
G1 X122.643 Y128.223 E.10561
G1 X121.439 Y127.994 E.11144
G1 X120.884 Y127.856 E.052
G1 X119.701 Y127.491 E.11257
G1 X119.157 Y127.291 E.0527
M73 P3 R18
G1 X118.016 Y126.798 E.11302
M73 Q3 S18
G1 X117 Y126.272 E.10403
G1 X116.373 Y125.908 E.06592
G1 X115.856 Y125.579 E.05572
G1 X114.796 Y124.827 E.11818
G1 X114.311 Y124.445 E.05614
G1 X113.321 Y123.582 E.11942
G1 X112.386 Y122.653 E.11985
G1 X111.49 Y121.644 E.1227
G1 X111.081 Y121.137 E.05923
G1 X110.258 Y120.017 E.12638
G1 X109.889 Y119.464 E.06045
G1 X109.162 Y118.263 E.12766
G1 X108.503 Y117.017 E.12817
G1 X107.955 Y115.827 E.11913
G1 X107.642 Y115.068 E.07465
G1 X107.149 Y113.701 E.13214
G1 X106.762 Y112.418 E.12185
G1 X106.551 Y111.605 E.07637
G1 X106.264 Y110.274 E.12381
G1 X106.117 Y109.44 E.077
G1 X105.936 Y108.082 E.12457
G1 X105.806 Y106.496 E.1447
G1 X105.767 Y104.999 E.13617
G1 X105.801 Y103.631 E.12443
G1 X105.854 Y102.77 E.07844
G1 X105.921 Y102.045 E.0662
G1 X106.118 Y100.556 E.13657
G1 X106.239 Y99.85 E.06513
G1 X106.552 Y98.391 E.13568
G1 X106.728 Y97.703 E.06457
G1 X107.15 Y96.297 E.13348
G1 X107.599 Y95.046 E.12086
G1 X107.907 Y94.283 E.07482
G1 X108.504 Y92.981 E.13024
G1 X109.109 Y91.833 E.118
G1 X109.51 Y91.141 E.07272
G1 X110.266 Y89.972 E.12659
G1 X111.01 Y88.957 E.11443
G1 X111.493 Y88.353 E.07032
G1 X112.316 Y87.423 E.11292
G1 X112.842 Y86.879 E.06881
G1 X113.732 Y86.048 E.11072
G1 X114.304 Y85.561 E.06831
G1 X114.796 Y85.173 E.05698
G1 X115.845 Y84.429 E.11694
G1 X116.916 Y83.773 E.1142
G1 X118.03 Y83.195 E.11412
G1 X118.564 Y82.953 E.05331
G1 X119.728 Y82.499 E.11361
G1 X120.276 Y82.319 E.05245
G1 X121.468 Y82 E.1122
G1 X122.025 Y81.883 E.05175
G1 X123.22 Y81.702 E.1099
G1 X123.734 Y81.663 E.04687
;WIDTH:0.744923
G1 X123.825 Y81.678 E.00899
;WIDTH:0.789846
G1 X123.916 Y81.694 E.00961
;WIDTH:0.83477
G1 X124.007 Y81.71 E.01021
;WIDTH:0.861681
G1 X124.232 Y81.708 E.02575
;WIDTH:0.888593
G1 X125.178 Y81.696 E.11199
;WIDTH:0.898487
G1 X125.75 Y81.722 E.0686
G1 X125.857 Y81.703 E.01302
;WIDTH:0.848865
G1 X125.964 Y81.683 E.01226
;WIDTH:0.799243
G1 X126.07 Y81.664 E.01135
;WIDTH:0.749621
G1 X126.177 Y81.644 E.01068
;WIDTH:0.7
G1 X127.386 Y81.782 E.11065
G1 X127.946 Y81.877 E.05165
G1 X129.131 Y82.149 E.11055
G1 X130.199 Y82.475 E.10154
G1 X130.861 Y82.716 E.06406
G1 X131.409 Y82.941 E.05387
G1 X132.549 Y83.483 E.11478
G1 X133.072 Y83.766 E.05407
G1 X134.155 Y84.429 E.11546
G1 X135.204 Y85.173 E.11694
G1 X135.69 Y85.556 E.05627
G1 X136.604 Y86.35 E.11009
G1 X137.147 Y86.867 E.06818
G1 X137.995 Y87.762 E.11211
G1 X138.497 Y88.341 E.06968
G1 X139.274 Y89.331 E.11444
G1 X140.111 Y90.536 E.13341
G1 X140.838 Y91.737 E.12766
G1 X141.502 Y92.992 E.1291
G1 X141.797 Y93.612 E.06243
G1 X142.365 Y94.95 E.13217
G1 X142.611 Y95.604 E.06354
G1 X143.069 Y96.992 E.1329
G1 X143.422 Y98.29 E.12231
G1 X143.613 Y99.11 E.07656
G1 X143.884 Y100.567 E.13476
G1 X144.079 Y102.045 E.13556
G1 X144.145 Y102.762 E.06547
G1 X144.207 Y103.944 E.10763
G1 X144.231 Y105.218 E.11586
G1 X144.224 Y105.733 E.04683
G1 X144.145 Y107.238 E.13704
G1 X144.079 Y107.955 E.06547
G1 X143.882 Y109.444 E.13657
G1 X143.761 Y110.15 E.06513
G1 X143.451 Y111.598 E.13465
G1 X143.066 Y113.019 E.13387
G1 X142.854 Y113.691 E.06407
G1 X142.361 Y115.06 E.13231
G1 X141.797 Y116.388 E.13119
G1 X141.502 Y117.008 E.06243
G1 X140.838 Y118.263 E.1291
G1 X140.136 Y119.423 E.12329
G1 X140.136 Y119.423 F7800
G1 X140.635 Y119.805
G1 F1800
G1 X140.25 Y120.382 E.06307
G1 X139.846 Y120.949 E.06331
G1 X138.982 Y122.053 E.12747
G1 X138.069 Y123.083 E.12516
G1 X137.104 Y124.04 E.12358
G1 X136.088 Y124.926 E.12258
G1 X135.047 Y125.718 E.11894
G1 X133.942 Y126.448 E.12042
G1 X133.398 Y126.767 E.05734
G1 X132.243 Y127.367 E.11835
G1 X131.678 Y127.623 E.0564
G1 X130.491 Y128.086 E.11585
G1 X129.387 Y128.428 E.10509
G1 X128.692 Y128.605 E.06521
G1 X127.561 Y128.822 E.10472
G1 X126.848 Y128.92 E.06544
G1 X126.244 Y128.978 E.05517
G1 X125 Y129.024 E.11319
G1 X123.756 Y128.978 E.11319
G1 X123.149 Y128.92 E.05545
G1 X122.544 Y128.84 E.05549
G1 X121.305 Y128.605 E.11467
G1 X120.717 Y128.458 E.05511
G1 X119.5 Y128.084 E.11577
G1 X118.925 Y127.871 E.05576
G1 X117.749 Y127.363 E.11648
G1 X116.699 Y126.82 E.10749
G1 X116.048 Y126.442 E.06845
G1 X115.507 Y126.098 E.0583
G1 X114.421 Y125.327 E.1211
G1 X113.912 Y124.926 E.05892
G1 X112.896 Y124.04 E.12258
G1 X111.931 Y123.083 E.12358
G1 X111.013 Y122.048 E.1258
G1 X110.586 Y121.519 E.06182
G1 X109.746 Y120.376 E.12898
G1 X109.361 Y119.799 E.06307
G1 X108.618 Y118.571 E.13051
G1 X107.942 Y117.294 E.13138
G1 X107.383 Y116.077 E.12178
G1 X107.059 Y115.293 E.07714
G1 X106.556 Y113.897 E.13493
G1 X106.161 Y112.587 E.12441
G1 X105.943 Y111.749 E.07874
G1 X105.651 Y110.395 E.12595
G1 X105.499 Y109.535 E.07941
G1 X105.315 Y108.153 E.12677
G1 X105.231 Y107.274 E.08029
G1 X105.182 Y106.525 E.06825
G1 X105.142 Y104.999 E.13881
G1 X105.177 Y103.604 E.12689
G1 X105.231 Y102.722 E.08035
G1 X105.3 Y101.975 E.06821
G1 X105.5 Y100.462 E.13877
G1 X105.626 Y99.731 E.06745
G1 X105.943 Y98.248 E.13789
G1 X106.126 Y97.536 E.06685
G1 X106.556 Y96.102 E.13613
G1 X107.015 Y94.823 E.12356
G1 X107.333 Y94.036 E.07718
G1 X107.943 Y92.705 E.13313
G1 X108.562 Y91.53 E.12076
G1 X108.977 Y90.815 E.07517
G1 X109.751 Y89.618 E.12961
G1 X110.513 Y88.577 E.11731
G1 X111.015 Y87.95 E.07303
G1 X111.857 Y86.998 E.11557
G1 X112.404 Y86.433 E.07151
G1 X113.316 Y85.582 E.11342
G1 X113.908 Y85.077 E.07076
G1 X114.421 Y84.673 E.05938
G1 X115.5 Y83.907 E.12032
G1 X116.609 Y83.229 E.11819
G1 X117.757 Y82.633 E.11762
G1 X118.322 Y82.377 E.0564
G1 X119.517 Y81.911 E.11663
G1 X120.097 Y81.72 E.05553
G1 X121.323 Y81.391 E.11542
G1 X121.914 Y81.268 E.05489
G1 X123.149 Y81.08 E.11359
G1 X124.383 Y80.987 E.11253
G1 X125.52 Y80.985 E.10339
G1 X126.228 Y81.021 E.06446
G1 X127.474 Y81.163 E.11403
G1 X128.068 Y81.264 E.05479
G1 X129.293 Y81.545 E.11428
G1 X130.397 Y81.883 E.10499
G1 X131.086 Y82.133 E.06665
G1 X131.662 Y82.37 E.05664
G1 X132.832 Y82.926 E.11779
G1 X133.384 Y83.224 E.05704
G1 X134.5 Y83.907 E.11897
G1 X135.579 Y84.673 E.12032
G1 X136.088 Y85.074 E.05892
G1 X137.025 Y85.888 E.11286
G1 X137.589 Y86.426 E.07087
G1 X138.458 Y87.342 E.11481
G1 X138.979 Y87.943 E.07232
G1 X139.774 Y88.955 E.11702
G1 X140.251 Y89.62 E.07442
G1 X140.639 Y90.201 E.06353
G1 X141.382 Y91.429 E.13051
G1 X142.061 Y92.711 E.13191
G1 X142.367 Y93.356 E.06492
G1 X142.945 Y94.718 E.13454
G1 X143.2 Y95.396 E.06587
G1 X143.668 Y96.812 E.13561
G1 X144.028 Y98.137 E.12485
G1 X144.224 Y98.982 E.07888
G1 X144.501 Y100.469 E.13754
G1 X144.7 Y101.975 E.13813
G1 X144.768 Y102.717 E.06775
G1 X144.831 Y103.911 E.10872
G1 X144.855 Y105.226 E.11959
G1 X144.849 Y105.753 E.04792
G1 X144.768 Y107.283 E.13932
G1 X144.7 Y108.025 E.06775
G1 X144.5 Y109.538 E.13877
G1 X144.374 Y110.269 E.06745
G1 X144.058 Y111.745 E.13725
G1 X143.666 Y113.195 E.13658
G1 X143.446 Y113.891 E.06637
G1 X142.943 Y115.288 E.13501
G1 X142.367 Y116.644 E.13396
G1 X142.061 Y117.289 E.06492
G1 X141.382 Y118.571 E.13191
G1 X140.666 Y119.754 E.12574
G1 X140.666 Y119.754 F7800
G1 X141.165 Y120.137
;TYPE:External perimeter
G1 F1800
G1 X140.764 Y120.737 E.06562
G1 X140.347 Y121.323 E.0654
G1 X139.462 Y122.453 E.13051
G1 X138.523 Y123.512 E.1287
G1 X137.53 Y124.497 E.12718
G1 X136.487 Y125.407 E.12586
G1 X135.405 Y126.231 E.12367
G1 X134.273 Y126.978 E.12332
G1 X133.701 Y127.314 E.06032
G1 X132.516 Y127.929 E.1214
G1 X131.921 Y128.199 E.05941
G1 X130.697 Y128.677 E.11948
G1 X129.557 Y129.03 E.10852
G1 X128.828 Y129.215 E.06839
G1 X127.663 Y129.439 E.10787
G1 X126.92 Y129.541 E.06819
G1 X126.285 Y129.601 E.058
G1 X125 Y129.65 E.11693
G1 X123.715 Y129.601 E.11693
G1 X123.079 Y129.541 E.05809
G1 X122.445 Y129.457 E.05815
G1 X121.171 Y129.215 E.11792
G1 X120.549 Y129.061 E.05827
G1 X119.3 Y128.676 E.11884
G1 X118.692 Y128.451 E.05895
G1 X117.481 Y127.928 E.11995
G1 X116.398 Y127.368 E.11086
G1 X115.724 Y126.976 E.0709
G1 X115.159 Y126.617 E.06087
G1 X114.047 Y125.828 E.12398
G1 X113.513 Y125.407 E.06183
G1 X112.47 Y124.497 E.12586
